src/status/22/indicator-keyboard.svg

<svg width="22" height="22" version="1.1" xmlns="http://www.w3.org/2000/svg">
 <defs>
  <style id="current-color-scheme" type="text/css">.ColorScheme-Text { color:#363636; } .ColorScheme-Highlight { color:#4285f4; }</style>
 </defs>
 <path d="m6.5 4c-1.3807 0-2.5 1.1193-2.5 2.5s1.1193 2.5 2.5 2.5h1.5v4h-1.5c-1.3807 0-2.5 1.1193-2.5 2.5s1.1193 2.5 2.5 2.5 2.5-1.1193 2.5-2.5v-1.5h4v1.5c0 1.3807 1.1193 2.5 2.5 2.5s2.5-1.1193 2.5-2.5-1.1193-2.5-2.5-2.5h-1.5v-4h1.5c1.3807 0 2.5-1.1193 2.5-2.5s-1.1193-2.5-2.5-2.5-2.5 1.1193-2.5 2.5v1.5h-4v-1.5c0-1.3807-1.1193-2.5-2.5-2.5zm0 1c0.82843 0 1.5 0.67157 1.5 1.5v1.5h-1.5c-0.82843 0-1.5-0.67157-1.5-1.5s0.67157-1.5 1.5-1.5zm9 0c0.82843 0 1.5 0.67157 1.5 1.5s-0.67157 1.5-1.5 1.5h-1.5v-1.5c0-0.82843 0.67157-1.5 1.5-1.5zm-6.5 4h4v4h-4zm-2.5 5h1.5v1.5c0 0.82843-0.67157 1.5-1.5 1.5s-1.5-0.67157-1.5-1.5 0.67157-1.5 1.5-1.5zm7.5 0h1.5c0.82843 0 1.5 0.67157 1.5 1.5s-0.67157 1.5-1.5 1.5-1.5-0.67157-1.5-1.5z" class="ColorScheme-Text" fill="currentColor"/>
</svg>

<svg xmlns="http://www.w3.org/2000/svg" width="22" height="22">
    <defs>
        <style id="current-color-scheme" type="text/css">
            .ColorScheme-Highlight{color:#a0b6cb}
        </style>
    </defs>
    <path fill="currentColor" d="M6.5 4a2.5 2.5 0 0 0 0 5H8v4H6.5A2.5 2.5 0 1 0 9 15.5V14h4v1.5a2.5 2.5 0 1 0 2.5-2.5H14V9h1.5A2.5 2.5 0 1 0 13 6.5V8H9V6.5A2.5 2.5 0 0 0 6.5 4zm0 1A1.5 1.5 0 0 1 8 6.5V8H6.5a1.5 1.5 0 1 1 0-3zm9 0a1.5 1.5 0 1 1 0 3H14V6.5A1.5 1.5 0 0 1 15.5 5zM9 9h4v4H9zm-2.5 5H8v1.5A1.5 1.5 0 1 1 6.5 14zm7.5 0h1.5a1.5 1.5 0 1 1-1.5 1.5z" style="color:#050505;opacity:.7"/>
</svg>
